svg/fluentui-system-icons/ic_fluent_gift_card_arrow_right_24_filled.svg

<svg width="24" height="24" viewBox="0 0 24 24" fill="none" xmlns="http://www.w3.org/2000/svg">
<path d="M7.99997 2H5C3.34315 2 2 3.34315 2 5V8H4.70802C4.57422 7.69377 4.5 7.35555 4.5 7C4.5 5.61929 5.61929 4.50001 6.99999 4.50001C7.35554 4.5 7.69375 4.57422 7.99997 4.70802V2ZM2 9.5V14C2 15.6569 3.34315 17 5 17H7.99997V10.5607L6.28033 12.2803C5.98744 12.5732 5.51256 12.5732 5.21967 12.2803C4.92678 11.9874 4.92678 11.5126 5.21967 11.2197L6.93934 9.5H2ZM9.49997 17H11.0189C11.2743 13.6438 14.0784 11 17.5 11C19.2465 11 20.8321 11.6888 22 12.8096V9.5H10.5607L12.2803 11.2197C12.5732 11.5126 12.5732 11.9874 12.2803 12.2803C11.9874 12.5732 11.5126 12.5732 11.2197 12.2803L9.49997 10.5606V17ZM22 8H12.792C12.9258 7.69377 13 7.35555 13 7C13 5.61929 11.8807 4.5 10.5 4.5C10.1444 4.5 9.80621 4.57423 9.49997 4.70803V2H19C20.6569 2 22 3.34315 22 5V8ZM10.5 8H9.5V7C9.5 6.44772 9.94772 6 10.5 6C11.0523 6 11.5 6.44772 11.5 7C11.5 7.55228 11.0523 8 10.5 8ZM7.99997 8H7C6.44771 8 6 7.55229 6 7C6 6.44772 6.44771 6.00001 7 6.00001C7.54975 6 7.9959 6.44363 7.99997 6.99242V8ZM23 17.5C23 20.5376 20.5376 23 17.5 23C14.4624 23 12 20.5376 12 17.5C12 14.4624 14.4624 12 17.5 12C20.5376 12 23 14.4624 23 17.5ZM14.5 17C14.2239 17 14 17.2239 14 17.5C14 17.7761 14.2239 18 14.5 18H19.2929L17.6464 19.6464C17.4512 19.8417 17.4512 20.1583 17.6464 20.3536C17.8417 20.5488 18.1583 20.5488 18.3536 20.3536L20.8536 17.8536C21.0488 17.6583 21.0488 17.3417 20.8536 17.1464L18.3536 14.6464C18.1583 14.4512 17.8417 14.4512 17.6464 14.6464C17.4512 14.8417 17.4512 15.1583 17.6464 15.3536L19.2929 17H14.5Z" fill="#212121"/>
</svg>

<svg xmlns="http://www.w3.org/2000/svg" width="24" height="24"><path d="M8 2H5a3 3 0 0 0-3 3v3h2.708A2.5 2.5 0 0 1 8 4.708V2ZM2 9.5V14a3 3 0 0 0 3 3h3v-6.44l-1.72 1.72a.75.75 0 0 1-1.06-1.06L6.94 9.5H2ZM9.5 17h1.519A6.5 6.5 0 0 1 22 12.81V9.5H10.56l1.72 1.72a.75.75 0 1 1-1.06 1.06L9.5 10.56V17ZM22 8h-9.208A2.5 2.5 0 0 0 9.5 4.708V2H19a3 3 0 0 1 3 3v3ZM10.5 8h-1V7a1 1 0 1 1 1 1ZM8 8H7a1 1 0 1 1 1-1.008V8Zm15 9.5a5.5 5.5 0 1 1-11 0 5.5 5.5 0 0 1 11 0Zm-8.5-.5a.5.5 0 0 0 0 1h4.793l-1.647 1.646a.5.5 0 0 0 .708.708l2.5-2.5a.5.5 0 0 0 0-.708l-2.5-2.5a.5.5 0 0 0-.708.708L19.293 17H14.5Z"/></svg>
